lib/brands/icons/jetbrains.svg

<svg xmlns="http://www.w3.org/2000/svg" fill="none" aria-hidden="true" viewBox="0 0 48 48"><g id="jetbrains-Icon"><g id="Group"><path id="Vector" fill="url(#paint0_linear_94_16728)" d="M26.51 23.4997L10.682 9.73506C9.89757 8.99694 8.75716 8.77876 7.75566 9.17521C6.75416 9.57165 6.07206 10.5113 6.00536 11.5863C5.93865 12.6614 6.49936 13.6781 7.44418 14.1953L25.2472 25.2474L25.3281 25.2979C25.8246 25.6243 26.4918 25.4863 26.8182 24.9898C27.1446 24.4932 27.0066 23.8261 26.51 23.4997Z"/><path id="Vector_2" fill="url(#paint1_linear_94_16728)" d="M41.9971 25.6995C41.9415 24.3093 41.1549 23.0522 39.9291 22.3941C38.7033 21.7361 37.221 21.7752 36.0316 22.497L13.8062 35.1478L13.7683 35.168C13.1123 35.4455 12.6542 36.0518 12.5665 36.7586C12.4788 37.4655 12.7748 38.1654 13.3431 38.5948C13.9114 39.0241 14.6656 39.1177 15.3215 38.8402L39.5371 29.4955L39.5978 29.4702C41.104 28.8347 42.0595 27.3331 41.9971 25.6995Z"/><path id="Vector_3" fill="url(#paint2_linear_94_16728)" d="M24.0982 25.111C24.3558 24.6113 24.1853 23.9974 23.7068 23.7022C23.2282 23.4071 22.6031 23.5301 22.2721 23.9846L12.8895 35.8903L12.8693 35.9308C12.4611 36.5503 12.4308 37.3453 12.7908 37.994C13.1508 38.6428 13.8413 39.0378 14.583 39.0193C15.3247 39.0007 15.9947 38.5717 16.3218 37.9058L24.0325 25.2171C24.0564 25.183 24.0783 25.1476 24.0982 25.111Z"/><path id="Vector_4" fill="black" d="M30.3466 17.9635H17.4609V30.8492H30.3466V17.9635Z"/><path id="Vector_5" fill="white" d="M20.2213 22.353C20.31 22.444 20.3582 22.5669 20.3552 22.694C20.3595 22.9032 20.2292 23.0915 20.0319 23.1612C20.2759 23.2046 20.4524 23.4185 20.4486 23.6663C20.4486 24.0275 20.1556 24.2447 19.653 24.2447H18.5696V22.1661H19.648C19.8564 22.1497 20.0627 22.2169 20.2213 22.353ZM19.5823 23.4113H19.1378V23.7977H19.5874C19.7667 23.7977 19.8652 23.7295 19.8652 23.6057C19.8677 23.4794 19.7793 23.4113 19.5823 23.4113ZM19.5318 22.6359H19.1504V23.0046H19.5167C19.6935 23.0046 19.7945 22.944 19.7945 22.8228L19.7844 22.8152C19.7844 22.699 19.6909 22.6359 19.5318 22.6359ZM23.6435 22.151L24.5376 24.2674H23.9138L23.7647 23.8886H22.949L22.8 24.2674H22.1913L22.1934 24.2624H21.8049L21.3806 23.6259H21.128V24.2624H20.5471V22.1661H21.5296C21.7787 22.146 22.0254 22.227 22.214 22.3909C22.3417 22.5212 22.4094 22.6987 22.4009 22.8809C22.4124 23.1679 22.2382 23.4297 21.969 23.53L22.2999 24.0097L23.0828 22.151H23.6435ZM23.3531 22.8405L23.1157 23.434H23.588L23.3531 22.8405ZM21.5043 22.6712H21.1204V23.1764H21.5068C21.5835 23.1954 21.6646 23.1774 21.7261 23.1278C21.7876 23.0782 21.8223 23.0028 21.82 22.9238C21.8226 22.8443 21.7875 22.7682 21.7254 22.7185C21.6632 22.6688 21.5813 22.6513 21.5043 22.6712ZM18.5721 28.4322H23.4036V29.2378H18.5721V28.4322ZM18.519 21.3554L18.8928 21.0018C18.9658 21.1157 19.0887 21.1879 19.2237 21.1963C19.2956 21.1929 19.3627 21.159 19.4081 21.103C19.4534 21.0471 19.4727 20.9744 19.4611 20.9033V19.5748H20.0395V20.9058C20.056 21.1231 19.9809 21.3374 19.8324 21.4968C19.6768 21.6422 19.4692 21.7187 19.2565 21.709C18.9667 21.7233 18.6894 21.5903 18.519 21.3554ZM20.1733 19.5748H21.863V20.0673H20.7492V20.3881H21.7594V20.8478H20.7492V21.1811H21.8781V21.6863H20.1733V19.5849V19.5748ZM22.6257 20.085H21.9993V19.5799H23.838V20.085H23.2091V21.6762H22.6282V20.085H22.6257ZM24.6058 22.1661H25.1867V24.2674H24.6058V22.1661ZM25.3332 22.1661H25.8762L26.7399 23.2774V22.1661H27.3158V24.2674H26.8106L25.9115 23.1158V24.2674H25.3357V22.1661H25.3332ZM27.3511 23.9543L27.6744 23.5678C27.866 23.7277 28.1068 23.8169 28.3563 23.8204C28.5154 23.8204 28.6089 23.7674 28.6089 23.6764C28.6089 23.5855 28.5407 23.5426 28.2528 23.4719C27.8057 23.3708 27.4597 23.2446 27.4597 22.8152C27.4597 22.4263 27.7678 22.1434 28.273 22.1434C28.5847 22.1311 28.8906 22.2295 29.1367 22.4212L28.8463 22.8329C28.6762 22.7047 28.4707 22.6324 28.2578 22.6258C28.1164 22.6258 28.0482 22.6839 28.0482 22.7596C28.0482 22.8556 28.1214 22.8986 28.4144 22.9642C28.8943 23.0703 29.1948 23.2168 29.1948 23.6184C29.1948 24.0477 28.8564 24.3028 28.3462 24.3028C27.9829 24.3134 27.6284 24.1893 27.3511 23.9543Z"/></g></g><defs><linearGradient id="paint0_linear_94_16728" x1="7.17646" x2="21.3996" y1="10.6847" y2="26.1149" gradientUnits="userSpaceOnUse"><stop stop-color="#AA4A9B"/><stop offset="1" stop-color="#F05922"/></linearGradient><linearGradient id="paint1_linear_94_16728" x1="13.1293" x2="27.862" y1="39.1761" y2="15.7651" gradientUnits="userSpaceOnUse"><stop stop-color="#FFE42E"/><stop offset="1" stop-color="#ED417C"/></linearGradient><linearGradient id="paint2_linear_94_16728" x1="13.973" x2="27.3156" y1="37.8426" y2="26.7219" gradientUnits="userSpaceOnUse"><stop stop-color="#FFE42E"/><stop offset="1" stop-color="#F05922"/></linearGradient></defs></svg>

<svg xmlns="http://www.w3.org/2000/svg" fill="none" aria-hidden="true" viewBox="0 0 48 48"><path fill="url(#a)" d="M26.51 23.5 10.682 9.735a2.778 2.778 0 1 0-3.238 4.46l17.803 11.052.081.05A1.076 1.076 0 0 0 26.51 23.5Z"/><path fill="url(#b)" d="M41.997 25.7a3.93 3.93 0 0 0-5.965-3.203l-22.226 12.65-.038.021a1.994 1.994 0 0 0 1.553 3.672l24.216-9.345.06-.025a3.93 3.93 0 0 0 2.4-3.77Z"/><path fill="url(#c)" d="M24.098 25.111a1.076 1.076 0 0 0-1.826-1.126L12.89 35.89l-.02.04a1.993 1.993 0 1 0 3.452 1.976l7.71-12.689c.024-.034.046-.07.066-.106Z"/><path fill="#000" d="M30.347 17.963H17.46V30.85h12.886V17.963Z"/><path fill="#fff" d="M20.221 22.353a.472.472 0 0 1 .134.341.485.485 0 0 1-.323.467c.244.044.42.258.417.505 0 .361-.293.579-.796.579H18.57v-2.079h1.078a.786.786 0 0 1 .573.187Zm-.639 1.058h-.444v.387h.45c.179 0 .277-.068.277-.192.003-.127-.086-.195-.283-.195Zm-.05-.775h-.382v.369h.367c.177 0 .277-.061.277-.182l-.01-.008c0-.116-.093-.18-.252-.18Zm4.111-.485.895 2.116h-.624l-.15-.378h-.815l-.149.378h-.609l.002-.005h-.388l-.424-.636h-.253v.636h-.58v-2.096h.982a.93.93 0 0 1 .684.225c.128.13.195.308.187.49a.664.664 0 0 1-.432.649l.33.48.784-1.859h.56Zm-.29.69-.237.593h.472l-.235-.594Zm-1.849-.17h-.384v.505h.387a.253.253 0 0 0 .313-.252.252.252 0 0 0-.316-.253Zm-2.932 5.761h4.832v.806h-4.832v-.806Zm-.053-7.077.374-.353a.424.424 0 0 0 .33.194.253.253 0 0 0 .238-.293v-1.328h.579v1.33a.78.78 0 0 1-.208.592.79.79 0 0 1-.576.212.859.859 0 0 1-.737-.354Zm1.654-1.78h1.69v.492h-1.114v.321h1.01v.46h-1.01v.333h1.13v.505h-1.706v-2.111Zm2.453.51h-.627v-.505h1.839v.505h-.629v1.591h-.58v-1.591h-.003Zm1.98 2.081h.58v2.101h-.58v-2.1Zm.727 0h.543l.864 1.111v-1.11h.576v2.1h-.505l-.9-1.151v1.151h-.575v-2.1h-.003Zm2.018 1.788.323-.386c.192.16.433.249.682.252.16 0 .253-.053.253-.144 0-.09-.068-.133-.356-.204-.447-.101-.793-.227-.793-.657 0-.389.308-.672.813-.672a1.32 1.32 0 0 1 .864.278l-.29.412a1.03 1.03 0 0 0-.59-.207c-.14 0-.209.058-.209.134 0 .096.073.139.366.204.48.106.78.253.78.654 0 .43-.338.685-.848.685a1.473 1.473 0 0 1-.995-.349Z"/><defs><linearGradient id="a" x1="7.176" x2="21.4" y1="10.685" y2="26.115" gradientUnits="userSpaceOnUse"><stop stop-color="#AA4A9B"/><stop offset="1" stop-color="#F05922"/></linearGradient><linearGradient id="b" x1="13.129" x2="27.862" y1="39.176" y2="15.765" gradientUnits="userSpaceOnUse"><stop stop-color="#FFE42E"/><stop offset="1" stop-color="#ED417C"/></linearGradient><linearGradient id="c" x1="13.973" x2="27.316" y1="37.843" y2="26.722" gradientUnits="userSpaceOnUse"><stop stop-color="#FFE42E"/><stop offset="1" stop-color="#F05922"/></linearGradient></defs></svg>
